img/text-flowers/text-flower-4.svg

<svg width="100" height="100" viewBox="0 0 100 100" fill="none" xmlns="http://www.w3.org/2000/svg">
<path d="M42.501 0.461914H38.2971L36.004 1.60843L34.0932 3.90146L32.5645 8.10534V16.8953L33.711 21.8635L36.3862 29.1248L39.4436 34.8573L33.3288 28.7426L28.3606 24.5387L23.0102 21.4813L17.6598 19.5705H11.5451L9.63421 20.3348L7.72335 21.8635L6.19467 24.5387V28.3604L7.34118 31.4178L10.3986 35.6217L13.4559 38.2969L17.6598 40.9721L23.7746 44.0295L31.8002 46.7047H27.2141L17.6598 47.0868L11.1629 48.6155L6.95901 50.5264L3.51947 52.8194L1.99078 54.7303L0.462097 57.4055V61.6093L1.60861 63.9024L4.28381 65.8132L7.72335 67.3419H17.2776L20.335 66.5776L27.2141 64.2845L34.4754 60.845L27.9784 67.3419L24.5389 71.5458L21.8637 76.1319L19.9528 80.7179L19.1885 84.9218L19.5707 88.3613L20.335 90.2722L22.2459 92.5652L24.5389 93.7118H28.3606L30.6536 92.9474L34.8575 90.2722L37.5327 87.2148L40.5901 83.0109L44.0296 75.7497L47.4692 84.1575L47.8514 85.8772L48.2335 87.597L50.9087 93.7118L53.9661 97.5335L57.4056 99.4443H61.6095L62.3739 99.0622L64.6669 97.1513L66.1956 94.8583L67.3421 91.0365V83.7753L66.5778 79.5714L64.2847 72.6923L60.8452 65.4311L65.4312 70.0171L70.3995 74.6032L76.5142 78.4249L82.2468 80.3357H88.3615L90.2724 79.5714L92.5654 77.6605L93.7119 75.3675V71.5458L92.1832 67.7241L89.508 64.6667L85.6863 61.2272L80.3359 57.7876L74.9855 55.4946L68.1064 53.2016H78.4251L81.8646 52.8194L88.7437 51.2907L92.9476 49.3799L97.1515 46.3225L99.4445 42.5008V38.2969L98.6802 36.7682L95.6228 34.093L91.4189 32.5643H83.3933L81.1003 32.9465L75.7499 34.4752L68.4886 37.5325L63.1382 40.5899L65.8134 38.6791L69.6351 34.8573L73.0747 31.0356L76.132 27.2139L78.8072 22.2457L80.3359 17.2775V11.5449L79.5716 9.63403L78.0429 7.72317L75.3677 6.19449H71.546L68.4886 7.341L64.6669 10.0162L61.6095 13.4557L58.9343 17.6596L55.877 23.7744L53.2018 31.8V21.8635L52.4374 15.7488L50.9087 10.3984L48.9979 6.19449L46.3227 2.75494L42.501 0.461914Z" fill="#E7637A"/>
<path d="M43.766 39.8533L47.6835 38.3282L51.7994 38.3664L55.619 39.7502L58.5088 41.9061L60.1916 44.1217L61.4394 47.327L61.7574 51.3043L59.9386 56.1134L58.3563 58.3698L56.1406 60.0526L52.2231 61.5776L47.7511 61.6781L44.4262 60.5118L41.5364 58.3559L39.8537 56.1403L38.3286 52.2228L38.1492 48.6016L39.3944 44.4259L41.9064 41.3974L43.766 39.8533Z" fill="#EFB74A"/>
</svg>

<svg width="100" height="100" fill="none" xmlns="http://www.w3.org/2000/svg"><path d="M42.501.462h-4.204l-2.293 1.146-1.91 2.293-1.53 4.204v8.79l1.147 4.968 2.675 7.262 3.058 5.732-6.115-6.114-4.968-4.204-5.35-3.058-5.351-1.91h-6.115l-1.91.764-1.912 1.528-1.528 2.676v3.821l1.146 3.058 3.058 4.204 3.057 2.675 4.204 2.675 6.115 3.057 8.025 2.676h-4.586l-9.554.382-6.497 1.528-4.204 1.911-3.44 2.293-1.528 1.911-1.529 2.676v4.203l1.147 2.293 2.675 1.911 3.44 1.529h9.554l3.057-.764 6.88-2.294 7.26-3.439-6.497 6.497-3.44 4.204-2.674 4.586-1.911 4.586-.764 4.204.382 3.44.764 1.91 1.91 2.293 2.294 1.147h3.822l2.293-.765 4.204-2.675 2.675-3.057 3.057-4.204 3.44-7.261 3.44 8.407.381 1.72.383 1.72 2.675 6.115 3.057 3.822 3.44 1.91h4.203l.765-.382 2.293-1.91 1.529-2.294 1.146-3.822v-7.26l-.764-4.205-2.293-6.879-3.44-7.26 4.586 4.585 4.969 4.586 6.114 3.822 5.733 1.91h6.115l1.91-.764 2.293-1.91 1.147-2.293v-3.822l-1.529-3.822-2.675-3.057-3.822-3.44-5.35-3.44-5.35-2.292-6.88-2.293h10.32l3.439-.383 6.879-1.528 4.204-1.911 4.204-3.058 2.293-3.821v-4.204l-.765-1.529-3.057-2.675-4.204-1.529h-8.026l-2.293.383-5.35 1.528-7.261 3.057-5.35 3.058 2.674-1.91 3.822-3.823 3.44-3.821 3.057-3.822 2.675-4.968 1.529-4.968v-5.733l-.764-1.911-1.53-1.91-2.674-1.53h-3.822l-3.057 1.147-3.822 2.675-3.058 3.44-2.675 4.204-3.057 6.114-2.675 8.026v-9.937l-.765-6.114-1.528-5.35-1.911-4.205-2.675-3.44L42.5.463z" fill="#E7637A"/><path d="M43.766 39.853l3.918-1.525 4.115.038 3.82 1.384 2.89 2.156 1.683 2.216 1.247 3.205.318 3.977-1.818 4.81-1.583 2.256-2.215 1.683-3.918 1.525-4.472.1-3.325-1.166-2.89-2.156-1.682-2.216-1.525-3.917-.18-3.621 1.245-4.176 2.512-3.029 1.86-1.544z" fill="#EFB74A"/></svg>
